images/portal/4140.svg

<?xml version="1.0" standalone="no"?><!DOCTYPE svg PUBLIC "-//W3C//DTD SVG 1.1//EN" "http://www.w3.org/Graphics/SVG/1.1/DTD/svg11.dtd"><svg xmlns:xlink="http://www.w3.org/1999/xlink" version="1.1" class="highcharts-root" style="font-family:arial;font-size:12px;" xmlns="http://www.w3.org/2000/svg" width="485" height="415"><desc>Created with Highstock 5.0.14</desc><defs><clipPath id="highcharts-du8c0bw-6"><rect x="0" y="0" width="438" height="308" fill="none"></rect></clipPath><clipPath id="highcharts-du8c0bw-7"><rect x="0" y="0" width="438" height="308" fill="none"></rect></clipPath></defs><rect fill="#fbfbfb" class="highcharts-background" x="0" y="0" width="485" height="415" rx="0" ry="0"></rect><rect fill="none" class="highcharts-plot-background" x="37" y="41" width="438" height="308"></rect><g class="highcharts-pane-group"></g><g class="highcharts-grid highcharts-xaxis-grid "><path fill="none" class="highcharts-grid-line" d="M 40.5 41 L 40.5 349" opacity="1"></path><path fill="none" class="highcharts-grid-line" d="M 100.5 41 L 100.5 349" opacity="1"></path><path fill="none" class="highcharts-grid-line" d="M 160.5 41 L 160.5 349" opacity="1"></path><path fill="none" class="highcharts-grid-line" d="M 219.5 41 L 219.5 349" opacity="1"></path><path fill="none" class="highcharts-grid-line" d="M 279.5 41 L 279.5 349" opacity="1"></path><path fill="none" class="highcharts-grid-line" d="M 338.5 41 L 338.5 349" opacity="1"></path><path fill="none" class="highcharts-grid-line" d="M 398.5 41 L 398.5 349" opacity="1"></path><path fill="none" class="highcharts-grid-line" d="M 458.5 41 L 458.5 349" opacity="1"></path></g><g class="highcharts-grid highcharts-yaxis-grid "><path fill="none" stroke="#B9CFD7" stroke-width="0.5" class="highcharts-grid-line" d="M 37 349.25 L 475 349.25" opacity="1"></path><path fill="none" stroke="#B9CFD7" stroke-width="0.5" class="highcharts-grid-line" d="M 37 287.25 L 475 287.25" opacity="1"></path><path fill="none" stroke="#B9CFD7" stroke-width="0.5" class="highcharts-grid-line" d="M 37 226.25 L 475 226.25" opacity="1"></path><path fill="none" stroke="#B9CFD7" stroke-width="0.5" class="highcharts-grid-line" d="M 37 164.25 L 475 164.25" opacity="1"></path><path fill="none" stroke="#B9CFD7" stroke-width="0.5" class="highcharts-grid-line" d="M 37 103.25 L 475 103.25" opacity="1"></path><path fill="none" stroke="#B9CFD7" stroke-width="0.5" class="highcharts-grid-line" d="M 37 40.75 L 475 40.75" opacity="1"></path></g><rect fill="none" class="highcharts-plot-border" x="37" y="41" width="438" height="308"></rect><g class="highcharts-axis highcharts-xaxis "><path fill="none" class="highcharts-axis-line" stroke="#B9CFD7" stroke-width="0.5" d="M 37 349.25 L 475 349.25"></path></g><g class="highcharts-axis highcharts-yaxis "><path fill="none" class="highcharts-axis-line" d="M 37 41 L 37 349"></path></g><g class="highcharts-series-group"><g class="highcharts-series highcharts-series-0 highcharts-line-series highcharts-color-undefined " transform="translate(37,41) scale(1 1)" clip-path="url(#highcharts-du8c0bw-7)"><path fill="none" d="M 4.2941176470577 86.24000000000001 L 123.57516339869 66.01905510496294 L 207.07189542484 60.36799999999997 L 219 58.51999999999998 L 230.92810457516 56.05600000000001 L 242.85620915033 54.77347028320551 L 362.13725490196 48.468715484216716 L 374.06535947713 49.09826658200467 L 385.99346405229 49.34667683821567 L 397.92156862745 49.25299033460345 L 409.84967320262 51.127999999999986 L 421.77777777778 52.6382363452484 L 433.70588235294 53.72062172284808" class="highcharts-graph" stroke="#008AC3" stroke-width="2" stroke-linejoin="round" stroke-linecap="round"></path></g><g class="highcharts-markers highcharts-series-0 highcharts-line-series highcharts-color-undefined " transform="translate(37,41) scale(1 1)" clip-path="none"><path fill="#008AC3" d="M 8 86 A 4 4 0 1 1 7.999998000000167 85.99600000066667 Z" class="highcharts-point"></path><path fill="#008AC3" d="M 127 66 A 4 4 0 1 1 126.99999800000016 65.99600000066667 Z" class="highcharts-point"></path><path fill="#008AC3" d="M 211 60 A 4 4 0 1 1 210.99999800000018 59.99600000066666 Z" class="highcharts-point"></path><path fill="#008AC3" d="M 223 59 A 4 4 0 1 1 222.99999800000018 58.99600000066666 Z" class="highcharts-point"></path><path fill="#008AC3" d="M 234 56 A 4 4 0 1 1 233.99999800000018 55.99600000066666 Z" class="highcharts-point"></path><path fill="#008AC3" d="M 246 55 A 4 4 0 1 1 245.99999800000018 54.99600000066666 Z" class="highcharts-point"></path><path fill="#008AC3" d="M 366 48 A 4 4 0 1 1 365.9999980000002 47.99600000066666 Z" class="highcharts-point"></path><path fill="#008AC3" d="M 378 49 A 4 4 0 1 1 377.9999980000002 48.99600000066666 Z" class="highcharts-point"></path><path fill="#008AC3" d="M 389 49 A 4 4 0 1 1 388.9999980000002 48.99600000066666 Z" class="highcharts-point"></path><path fill="#008AC3" d="M 401 49 A 4 4 0 1 1 400.9999980000002 48.99600000066666 Z" class="highcharts-point"></path><path fill="#008AC3" d="M 413 51 A 4 4 0 1 1 412.9999980000002 50.99600000066666 Z" class="highcharts-point"></path><path fill="#008AC3" d="M 425 53 A 4 4 0 1 1 424.9999980000002 52.99600000066666 Z" class="highcharts-point"></path><path fill="#008AC3" d="M 437 54 A 4 4 0 1 1 436.9999980000002 53.99600000066666 Z" class="highcharts-point"></path></g></g><text x="10" text-anchor="start" class="highcharts-title" style="color:#000000;font-size:14px;font-weight:bold;fill:#000000;" y="21"><tspan>Mittlere Wohnfläche pro Person</tspan></text><g class="highcharts-data-labels highcharts-series-0 highcharts-line-series highcharts-color-undefined " visibility="visible" transform="translate(37,41) scale(1 1)"><g class="highcharts-label highcharts-data-label highcharts-data-label-color-undefined " transform="translate(-5,63)"><text x="5" style="font-size:11px;font-weight:bold;color:#000000;fill:#000000;" y="16"><tspan x="5" y="16" class="highcharts-text-outline" fill="#FFFFFF" stroke="#FFFFFF" stroke-width="2px" stroke-linejoin="round">36</tspan><tspan x="5" y="16">36</tspan></text></g><g class="highcharts-label highcharts-data-label highcharts-data-label-color-undefined " transform="translate(119,56)"><text x="5" style="font-size:11px;font-weight:bold;color:#000000;fill:#000000;" y="16"></text></g><g class="highcharts-label highcharts-data-label highcharts-data-label-color-undefined " transform="translate(202,50)"><text x="5" style="font-size:11px;font-weight:bold;color:#000000;fill:#000000;" y="16"></text></g><g class="highcharts-label highcharts-data-label highcharts-data-label-color-undefined " transform="translate(214,49)"><text x="5" style="font-size:11px;font-weight:bold;color:#000000;fill:#000000;" y="16"></text></g><g class="highcharts-label highcharts-data-label highcharts-data-label-color-undefined " transform="translate(226,46)"><text x="5" style="font-size:11px;font-weight:bold;color:#000000;fill:#000000;" y="16"></text></g><g class="highcharts-label highcharts-data-label highcharts-data-label-color-undefined " transform="translate(238,45)"><text x="5" style="font-size:11px;font-weight:bold;color:#000000;fill:#000000;" y="16"></text></g><g class="highcharts-label highcharts-data-label highcharts-data-label-color-undefined " transform="translate(357,38)"><text x="5" style="font-size:11px;font-weight:bold;color:#000000;fill:#000000;" y="16"></text></g><g class="highcharts-label highcharts-data-label highcharts-data-label-color-undefined " transform="translate(369,39)"><text x="5" style="font-size:11px;font-weight:bold;color:#000000;fill:#000000;" y="16"></text></g><g class="highcharts-label highcharts-data-label highcharts-data-label-color-undefined " transform="translate(381,39)"><text x="5" style="font-size:11px;font-weight:bold;color:#000000;fill:#000000;" y="16"></text></g><g class="highcharts-label highcharts-data-label highcharts-data-label-color-undefined " transform="translate(393,39)"><text x="5" style="font-size:11px;font-weight:bold;color:#000000;fill:#000000;" y="16"></text></g><g class="highcharts-label highcharts-data-label highcharts-data-label-color-undefined " transform="translate(405,41)"><text x="5" style="font-size:11px;font-weight:bold;color:#000000;fill:#000000;" y="16"></text></g><g class="highcharts-label highcharts-data-label highcharts-data-label-color-undefined " transform="translate(417,43)"><text x="5" style="font-size:11px;font-weight:bold;color:#000000;fill:#000000;" y="16"></text></g><g class="highcharts-label highcharts-data-label highcharts-data-label-color-undefined " transform="translate(420,31)"><text x="5" style="font-size:11px;font-weight:bold;color:#000000;fill:#000000;" y="16"><tspan x="5" y="16" class="highcharts-text-outline" fill="#FFFFFF" stroke="#FFFFFF" stroke-width="2px" stroke-linejoin="round">41</tspan><tspan x="5" y="16">41</tspan></text></g></g><g class="highcharts-axis-labels highcharts-xaxis-labels "><text x="41.294117647057654" style="color:#000000;cursor:default;font-size:11px;fill:#000000;" text-anchor="middle" transform="translate(0,0)" y="368" opacity="1">1980</text><text x="100.93464052287496" style="color:#000000;cursor:default;font-size:11px;fill:#000000;" text-anchor="middle" transform="translate(0,0)" y="368" opacity="1">1985</text><text x="160.57516339869227" style="color:#000000;cursor:default;font-size:11px;fill:#000000;" text-anchor="middle" transform="translate(0,0)" y="368" opacity="1">1990</text><text x="220.2156862745096" style="color:#000000;cursor:default;font-size:11px;fill:#000000;" text-anchor="middle" transform="translate(0,0)" y="368" opacity="1">1995</text><text x="279.8562091503269" style="color:#000000;cursor:default;font-size:11px;fill:#000000;" text-anchor="middle" transform="translate(0,0)" y="368" opacity="1">2000</text><text x="339.49673202614423" style="color:#000000;cursor:default;font-size:11px;fill:#000000;" text-anchor="middle" transform="translate(0,0)" y="368" opacity="1">2005</text><text x="399.1372549019615" style="color:#000000;cursor:default;font-size:11px;fill:#000000;" text-anchor="middle" transform="translate(0,0)" y="368" opacity="1">2010</text><text x="458.77777777777885" style="color:#000000;cursor:default;font-size:11px;fill:#000000;" text-anchor="middle" transform="translate(0,0)" y="368" opacity="1">2015</text></g><g class="highcharts-axis-labels highcharts-yaxis-labels "><text x="22" style="color:#000000;cursor:default;font-size:11px;fill:#000000;" text-anchor="end" transform="translate(0,0)" y="354" opacity="1"><tspan>0</tspan></text><text x="22" style="color:#000000;cursor:default;font-size:11px;fill:#000000;" text-anchor="end" transform="translate(0,0)" y="292" opacity="1"><tspan>10</tspan></text><text x="22" style="color:#000000;cursor:default;font-size:11px;fill:#000000;" text-anchor="end" transform="translate(0,0)" y="230" opacity="1"><tspan>20</tspan></text><text x="22" style="color:#000000;cursor:default;font-size:11px;fill:#000000;" text-anchor="end" transform="translate(0,0)" y="169" opacity="1"><tspan>30</tspan></text><text x="22" style="color:#000000;cursor:default;font-size:11px;fill:#000000;" text-anchor="end" transform="translate(0,0)" y="107" opacity="1"><tspan>40</tspan></text><text x="22" style="color:#000000;cursor:default;font-size:11px;fill:#000000;" text-anchor="end" transform="translate(0,0)" y="46" opacity="1"><tspan>50</tspan></text></g><text x="10" class="highcharts-credits" text-anchor="start" style="cursor:default;color:#000000;font-size:10px;fill:#000000;" y="400"><tspan>Quelle: Statistisches Amt Basel-Stadt, kantonale Gebäude- und Wohnungsstatistik</tspan></text></svg>

<svg class="highcharts-root" xmlns="http://www.w3.org/2000/svg" width="485" height="415" font-family="arial" font-size="12">
    <defs>
        <clipPath id="a">
            <path fill="none" d="M0 0h438v308H0z"/>
        </clipPath>
    </defs>
    <rect fill="#fbfbfb" class="highcharts-background" width="485" height="415" rx="0" ry="0"/>
    <path fill="none" class="highcharts-plot-background" d="M37 41h438v308H37z"/>
    <g class="highcharts-grid highcharts-xaxis-grid">
        <path fill="none" class="highcharts-grid-line" d="M40.5 41v308m60-308v308m60-308v308m59-308v308m60-308v308m59-308v308m60-308v308m60-308v308"/>
    </g>
    <g class="highcharts-grid highcharts-yaxis-grid">
        <path fill="none" stroke="#B9CFD7" stroke-width=".5" class="highcharts-grid-line" d="M37 349.25h438m-438-62h438m-438-61h438m-438-62h438m-438-61h438M37 40.75h438"/>
    </g>
    <path fill="none" class="highcharts-plot-border" d="M37 41h438v308H37z"/>
    <g class="highcharts-axis highcharts-xaxis">
        <path fill="none" class="highcharts-axis-line" stroke="#B9CFD7" stroke-width=".5" d="M37 349.25h438"/>
    </g>
    <g class="highcharts-axis highcharts-yaxis">
        <path fill="none" class="highcharts-axis-line" d="M37 41v308"/>
    </g>
    <g class="highcharts-series-group">
        <g class="highcharts-series highcharts-series-0 highcharts-line-series highcharts-color-undefined" transform="translate(37 41)" clip-path="url(#a)">
            <path fill="none" d="M4.294 86.24l119.281-20.22 83.497-5.652L219 58.52l11.928-2.464 11.928-1.283 119.281-6.304 11.928.63 11.928.248 11.929-.094 11.928 1.875 11.928 1.51 11.928 1.083" class="highcharts-graph" stroke="#008AC3" stroke-width="2" stroke-linejoin="round" stroke-linecap="round"/>
        </g>
        <g class="highcharts-markers highcharts-series-0 highcharts-line-series highcharts-color-undefined">
            <path fill="#008AC3" d="M45 127a4 4 0 1 1 0-.004zm119-20a4 4 0 1 1 0-.004zm84-6a4 4 0 1 1 0-.004zm12-1a4 4 0 1 1 0-.004zm11-3a4 4 0 1 1 0-.004zm12-1a4 4 0 1 1 0-.004zm120-7a4 4 0 1 1 0-.004zm12 1a4 4 0 1 1 0-.004zm11 0a4 4 0 1 1 0-.004zm12 0a4 4 0 1 1 0-.004zm12 2a4 4 0 1 1 0-.004zm12 2a4 4 0 1 1 0-.004zm12 1a4 4 0 1 1 0-.004z" class="highcharts-point"/>
        </g>
    </g>
    <text x="10" class="highcharts-title" y="21" color="#000" font-size="14" font-weight="700">
        <tspan>Mittlere Wohnfläche pro Person</tspan>
    </text>
    <g class="highcharts-data-labels highcharts-series-0 highcharts-line-series highcharts-color-undefined">
        <text x="5" y="16" font-size="11" font-weight="700" color="#000" transform="translate(32 104)" class="highcharts-label highcharts-data-label highcharts-data-label-color-undefined">
            <tspan x="5" y="16" class="highcharts-text-outline" fill="#FFF" stroke="#FFF" stroke-width="2" stroke-linejoin="round">36</tspan><tspan x="5" y="16">36</tspan>
        </text>
        <text x="5" y="16" font-size="11" font-weight="700" color="#000" transform="translate(457 72)" class="highcharts-label highcharts-data-label highcharts-data-label-color-undefined">
            <tspan x="5" y="16" class="highcharts-text-outline" fill="#FFF" stroke="#FFF" stroke-width="2" stroke-linejoin="round">41</tspan><tspan x="5" y="16">41</tspan>
        </text>
    </g>
    <g class="highcharts-axis-labels highcharts-xaxis-labels" text-anchor="middle" color="#000" cursor="default" font-size="11">
        <text x="41.294" y="368">
            1980
        </text>
        <text x="100.935" y="368">
            1985
        </text>
        <text x="160.575" y="368">
            1990
        </text>
        <text x="220.216" y="368">
            1995
        </text>
        <text x="279.856" y="368">
            2000
        </text>
        <text x="339.497" y="368">
            2005
        </text>
        <text x="399.137" y="368">
            2010
        </text>
        <text x="458.778" y="368">
            2015
        </text>
    </g>
    <g class="highcharts-axis-labels highcharts-yaxis-labels" text-anchor="end" color="#000" cursor="default" font-size="11">
        <text x="22" y="354">
            <tspan>0</tspan>
        </text>
        <text x="22" y="292">
            <tspan>10</tspan>
        </text>
        <text x="22" y="230">
            <tspan>20</tspan>
        </text>
        <text x="22" y="169">
            <tspan>30</tspan>
        </text>
        <text x="22" y="107">
            <tspan>40</tspan>
        </text>
        <text x="22" y="46">
            <tspan>50</tspan>
        </text>
    </g>
    <text x="10" class="highcharts-credits" y="400" cursor="default" color="#000" font-size="10">
        <tspan>Quelle: Statistisches Amt Basel-Stadt, kantonale Gebäude- und Wohnungsstatistik</tspan>
    </text>
</svg>
